X:2418
T:Jerrey yn Theihll 
C:Henry Clague, Ballanorris 
C:Traditional
O:Isle of Man
N:See KV5
Z:Journal of Folk Song Society Vol VII, No. 29.
Z:Kiaull Vannin 418 
M:2/4 
L:1/8 
K:D 
F|Bc de|f2 df|ed c2|dc !fermata!B F|Bc de|f2 df|e2 d2| 
c2 dc|B2 GG|GF dc|B2 GG|GF Ee|d2 c2|B3|| 

